;START_OF_HEADER
;HEADER_VERSION:0.1
;FLAVOR:Griffin
;GENERATOR.NAME:Cura_SteamEngine
;GENERATOR.VERSION:3.4.1
;GENERATOR.BUILD_DATE:2018-07-10
;TARGET_MACHINE.NAME:Ultimaker 3
;EXTRUDER_TRAIN.0.INITIAL_TEMPERATURE:100
;EXTRUDER_TRAIN.0.MATERIAL.VOLUME_USED:1595
;EXTRUDER_TRAIN.0.MATERIAL.GUID:2433b8fb-dcd6-4e36-9cd5-9f4ee551c04c
;EXTRUDER_TRAIN.0.NOZZLE.DIAMETER:0.4
;EXTRUDER_TRAIN.0.NOZZLE.NAME:AA 0.4
;EXTRUDER_TRAIN.1.INITIAL_TEMPERATURE:230
;EXTRUDER_TRAIN.1.MATERIAL.VOLUME_USED:73
;EXTRUDER_TRAIN.1.MATERIAL.GUID:fe15ed8a-33c3-4f57-a2a7-b4b78a38c3cb
;EXTRUDER_TRAIN.1.NOZZLE.DIAMETER:0.4
;EXTRUDER_TRAIN.1.NOZZLE.NAME:BB 0.4
;BUILD_PLATE.TYPE:glass
;BUILD_PLATE.INITIAL_TEMPERATURE:60
;PRINT.TIME:2117
;PRINT.SIZE.MIN.X:9
;PRINT.SIZE.MIN.Y:6
;PRINT.SIZE.MIN.Z:0.27
;PRINT.SIZE.MAX.X:213
;PRINT.SIZE.MAX.Y:207
;PRINT.SIZE.MAX.Z:27.97
;END_OF_HEADER
;Generated with Cura_SteamEngine 3.4.1
T0
M82 ;absolute extrusion mode

T1
G92 E0
M109 S230
G0 F15000 X204 Y6 Z2
G280
G1 F1500 E-4.5
;LAYER_COUNT:279
;LAYER:0
M107
M104 T0 S210
M204 S625
M205 X6 Y6
G0 F8571.4 X105.227 Y92.146 Z0.27
M204 S500
M205 X5 Y5
;TYPE:SKIRT
G1 F900 E0
G1 F1200 X105.553 Y92.527 E0.00891
G1 X105.813 Y92.956 E0.01783
G1 X106.003 Y93.421 E0.02676
G1 X106.116 Y93.909 E0.03566
G1 X106.15 Y94.373 E0.04393
G1 X106.15 Y120.627 E0.51062
G1 X106.11 Y121.127 E0.51954
G1 X105.991 Y121.614 E0.52845
G1 X105.797 Y122.077 E0.53738
G1 X105.531 Y122.502 E0.54629
G1 X105.227 Y122.854 E0.55456
G1 X105.104 Y122.977 E0.55765
G1 X104.723 Y123.303 E0.56656
G1 X104.294 Y123.563 E0.57548
G1 X103.829 Y123.753 E0.58441
G1 X103.341 Y123.866 E0.59331
G1 X102.877 Y123.9 E0.60158
G1 X94.123 Y123.9 E0.75719
G1 X93.623 Y123.86 E0.76611
G1 X93.136 Y123.741 E0.77502
G1 X92.673 Y123.547 E0.78395
G1 X92.248 Y123.281 E0.79286
G1 X91.896 Y122.977 E0.80113
G1 X91.773 Y122.854 E0.80422
G1 X91.447 Y122.473 E0.81313
G1 X91.187 Y122.044 E0.82205
G1 X90.997 Y121.579 E0.83098
G1 X90.884 Y121.091 E0.83988
G1 X90.85 Y120.627 E0.84815
G1 X90.85 Y94.373 E1.31484
G1 X90.89 Y93.873 E1.32376
G1 X91.009 Y93.386 E1.33267
G1 X91.203 Y92.923 E1.34159
G1 X91.469 Y92.498 E1.35051
G1 X91.773 Y92.146 E1.35877
G1 X91.896 Y92.023 E1.36187
G1 X92.277 Y91.697 E1.37078
G1 X92.706 Y91.437 E1.3797
G1 X93.171 Y91.247 E1.38863
G1 X93.659 Y91.134 E1.39753
G1 X94.123 Y91.1 E1.4058
G1 X102.877 Y91.1 E1.56141
G1 X103.377 Y91.14 E1.57033
G1 X103.864 Y91.259 E1.57924
G1 X104.327 Y91.453 E1.58816
G1 X104.752 Y91.719 E1.59707
G1 X105.104 Y92.023 E1.60534
G1 X105.227 Y92.146 E1.60843
M204 S625
M205 X6 Y6
G0 F8571.4 X104.93 Y92.443
M204 S500
M205 X5 Y5
G1 F1200 X105.231 Y92.8 E1.61674
G1 X105.467 Y93.203 E1.62504
G1 X105.63 Y93.64 E1.63333
G1 X105.716 Y94.099 E1.64163
G1 X105.73 Y94.373 E1.64651
G1 X105.73 Y120.627 E2.1132
G1 X105.69 Y121.092 E2.12149
G1 X105.571 Y121.544 E2.1298
G1 X105.378 Y121.969 E2.1381
G1 X105.114 Y122.354 E2.1464
G1 X104.93 Y122.557 E2.15127
G1 X104.807 Y122.68 E2.15436
G1 X104.45 Y122.981 E2.16266
G1 X104.047 Y123.217 E2.17096
G1 X103.61 Y123.38 E2.17925
G1 X103.151 Y123.466 E2.18755
G1 X102.877 Y123.48 E2.19243
G1 X94.123 Y123.48 E2.34804
G1 X93.658 Y123.44 E2.35634
G1 X93.206 Y123.321 E2.36465
G1 X92.781 Y123.128 E2.37294
G1 X92.396 Y122.864 E2.38124
G1 X92.193 Y122.68 E2.38611
G1 X92.07 Y122.557 E2.3892
G1 X91.769 Y122.2 E2.3975
G1 X91.533 Y121.797 E2.40581
G1 X91.37 Y121.36 E2.4141
G1 X91.284 Y120.901 E2.4224
G1 X91.27 Y120.627 E2.42728
G1 X91.27 Y94.373 E2.89397
G1 X91.31 Y93.908 E2.90226
G1 X91.429 Y93.456 E2.91057
G1 X91.622 Y93.031 E2.91887
G1 X91.886 Y92.646 E2.92717
G1 X92.07 Y92.443 E2.93204
G1 X92.193 Y92.32 E2.93513
G1 X92.55 Y92.019 E2.94343
G1 X92.953 Y91.783 E2.95173
G1 X93.39 Y91.62 E2.96002
G1 X93.849 Y91.534 E2.96832
G1 X94.123 Y91.52 E2.9732
G1 X102.877 Y91.52 E3.12881
G1 X103.342 Y91.56 E3.13711
G1 X103.794 Y91.679 E3.14542
G1 X104.219 Y91.872 E3.15371
G1 X104.604 Y92.136 E3.16201
G1 X104.807 Y92.32 E3.16688
G1 X104.93 Y92.443 E3.16997
M204 S625
M205 X6 Y6
G0 F8571.4 X104.633 Y92.74
M204 S500
M205 X5 Y5
G1 F1200 X104.908 Y93.07 E3.17761
G1 X105.116 Y93.446 E3.18525
G1 X105.251 Y93.853 E3.19287
G1 X105.31 Y94.373 E3.20217
G1 X105.31 Y120.627 E3.66886
G1 X105.27 Y121.055 E3.6765
G1 X105.152 Y121.467 E3.68412
G1 X104.959 Y121.851 E3.69176
G1 X104.633 Y122.26 E3.70106
G1 X104.51 Y122.383 E3.70415
G1 X104.18 Y122.658 E3.71179
G1 X103.804 Y122.866 E3.71943
G1 X103.397 Y123.001 E3.72705
G1 X102.877 Y123.06 E3.73635
G1 X94.123 Y123.06 E3.89196
G1 X93.695 Y123.02 E3.8996
G1 X93.283 Y122.902 E3.90722
G1 X92.899 Y122.709 E3.91486
G1 X92.49 Y122.383 E3.92416
G1 X92.367 Y122.26 E3.92725
G1 X92.092 Y121.93 E3.93489
G1 X91.884 Y121.554 E3.94253
G1 X91.749 Y121.147 E3.95015
G1 X91.69 Y120.627 E3.95945
G1 X91.69 Y94.373 E4.42614
G1 X91.73 Y93.945 E4.43378
G1 X91.848 Y93.533 E4.4414
G1 X92.041 Y93.149 E4.44904
G1 X92.367 Y92.74 E4.45834
G1 X92.49 Y92.617 E4.46143
G1 X92.82 Y92.342 E4.46907
G1 X93.196 Y92.134 E4.4767
G1 X93.603 Y91.999 E4.48433
G1 X94.123 Y91.94 E4.49363
G1 X102.877 Y91.94 E4.64924
G1 X103.305 Y91.98 E4.65688
G1 X103.717 Y92.098 E4.6645
G1 X104.101 Y92.291 E4.67214
G1 X104.51 Y92.617 E4.68144
G1 X104.633 Y92.74 E4.68453
M204 S625
M205 X6 Y6
G0 F8571.4 X104.336 Y93.037
M204 S500
M205 X5 Y5
G1 F1200 X104.581 Y93.338 E4.69143
G1 X104.76 Y93.683 E4.69834
G1 X104.863 Y94.057 E4.70523
G1 X104.89 Y94.373 E4.71087
G1 X104.89 Y120.627 E5.17756
G1 X104.85 Y121.013 E5.18446
G1 X104.732 Y121.383 E5.19136
G1 X104.541 Y121.721 E5.19826
G1 X104.336 Y121.963 E5.2039
G1 X104.213 Y122.086 E5.20699
G1 X103.912 Y122.331 E5.21389
G1 X103.567 Y122.51 E5.2208
G1 X103.193 Y122.613 E5.2277
G1 X102.877 Y122.64 E5.23333
G1 X94.123 Y122.64 E5.38895
G1 X93.737 Y122.6 E5.39584
G1 X93.367 Y122.482 E5.40275
G1 X93.029 Y122.291 E5.40965
G1 X92.787 Y122.086 E5.41529
G1 X92.664 Y121.963 E5.41838
G1 X92.419 Y121.662 E5.42528
G1 X92.24 Y121.317 E5.43219
G1 X92.137 Y120.943 E5.43908
G1 X92.11 Y120.627 E5.44472
G1 X92.11 Y94.373 E5.91141
G1 X92.15 Y93.987 E5.91831
G1 X92.268 Y93.617 E5.92521
G1 X92.459 Y93.279 E5.93211
G1 X92.664 Y93.037 E5.93775
G1 X92.787 Y92.914 E5.94084
G1 X93.088 Y92.669 E5.94774
G1 X93.433 Y92.49 E5.95465
G1 X93.807 Y92.387 E5.96155
G1 X94.123 Y92.36 E5.96718
G1 X102.877 Y92.36 E6.12279
G1 X103.263 Y92.4 E6.12969
G1 X103.633 Y92.518 E6.1366
G1 X103.971 Y92.709 E6.1435
G1 X104.213 Y92.914 E6.14914
G1 X104.336 Y93.037 E6.15223
M204 S625
M205 X6 Y6
G0 F8571.4 X104.039 Y93.334
M104 S210
M204 S500
M205 X5 Y5
G1 F1200 X104.252 Y93.602 E6.15831
G1 X104.396 Y93.913 E6.16441
G1 X104.47 Y94.373 E6.17269
G1 X104.47 Y120.627 E6.63938
G1 X104.43 Y120.967 E6.64546
G1 X104.313 Y121.289 E6.65155
G1 X104.039 Y121.666 E6.65984
G1 X103.916 Y121.789 E6.66293
G1 X103.648 Y122.002 E6.66902
G1 X103.337 Y122.146 E6.67511
G1 X102.877 Y122.22 E6.68339
G1 X94.123 Y122.22 E6.839
G1 X93.783 Y122.18 E6.84509
G1 X93.461 Y122.063 E6.85118
G1 X93.084 Y121.789 E6.85946
G1 X92.961 Y121.666 E6.86255
G1 X92.748 Y121.398 E6.86864
G1 X92.604 Y121.087 E6.87473
G1 X92.53 Y120.627 E6.88301
G1 X92.53 Y94.373 E7.3497
G1 X92.57 Y94.033 E7.35579
G1 X92.687 Y93.711 E7.36188
G1 X92.961 Y93.334 E7.37016
G1 X93.084 Y93.211 E7.37325
G1 X93.352 Y92.998 E7.37934
G1 X93.663 Y92.854 E7.38543
G1 X94.123 Y92.78 E7.39371
G1 X102.877 Y92.78 E7.54933
G1 X103.217 Y92.82 E7.55541
G1 X103.539 Y92.937 E7.5615
G1 X103.916 Y93.211 E7.56979
G1 X104.039 Y93.334 E7.57288
M204 S625
M205 X6 Y6
G0 F8571.4 X103.742 Y93.631
M204 S500
M205 X5 Y5
G1 F1200 X103.917 Y93.861 E7.57801
G1 X104.022 Y94.131 E7.58316
G1 X104.05 Y94.373 E7.5875
G1 X104.05 Y120.627 E8.05419
G1 X104.01 Y120.913 E8.05932
G1 X103.894 Y121.178 E8.06446
G1 X103.742 Y121.369 E8.0688
G1 X103.619 Y121.492 E8.07189
G1 X103.389 Y121.667 E8.07703
G1 X103.119 Y121.772 E8.08218
G1 X102.877 Y121.8 E8.08651
G1 X94.123 Y121.8 E8.24212
G1 X93.837 Y121.76 E8.24725
G1 X93.572 Y121.644 E8.2524
G1 X93.381 Y121.492 E8.25674
G1 X93.258 Y121.369 E8.25983
G1 X93.083 Y121.139 E8.26497
G1 X92.978 Y120.869 E8.27011
G1 X92.95 Y120.627 E8.27445
G1 X92.95 Y94.373 E8.74114
G1 X92.99 Y94.087 E8.74627
G1 X93.106 Y93.822 E8.75141
G1 X93.258 Y93.631 E8.75575
G1 X93.381 Y93.508 E8.75884
G1 X93.611 Y93.333 E8.76398
G1 X93.881 Y93.228 E8.76913
G1 X94.123 Y93.2 E8.77346
G1 X102.877 Y93.2 E8.92907
G1 X103.163 Y93.24 E8.9342
G1 X103.428 Y93.356 E8.93935
G1 X103.619 Y93.508 E8.94369
G1 X103.742 Y93.631 E8.94678
M204 S625
M205 X6 Y6
G0 F8571.4 X103.445 Y93.928
M204 S500
M205 X5 Y5
G1 F1200 X103.573 Y94.111 E8.95075
G1 X103.63 Y94.373 E8.95551
G1 X103.63 Y120.627 E9.4222
G1 X103.59 Y120.847 E9.42618
G1 X103.445 Y121.072 E9.43094
G1 X103.322 Y121.195 E9.43403
G1 X103.139 Y121.323 E9.438
G1 X102.877 Y121.38 E9.44277
G1 X94.123 Y121.38 E9.59838
G1 X93.903 Y121.34 E9.60235
G1 X93.678 Y121.195 E9.60711
G1 X93.555 Y121.072 E9.6102
G1 X93.427 Y120.889 E9.61417
G1 X93.37 Y120.627 E9.61894
G1 X93.37 Y94.373 E10.08563
G1 X93.41 Y94.153 E10.0896
G1 X93.555 Y93.928 E10.09436
G1 X93.678 Y93.805 E10.09745
G1 X93.861 Y93.677 E10.10142
G1 X94.123 Y93.62 E10.10619
G1 X102.877 Y93.62 E10.2618
G1 X103.097 Y93.66 E10.26577
G1 X103.322 Y93.805 E10.27053
G1 X103.445 Y93.928 E10.27362
M204 S625
M205 X6 Y6
G0 F8571.4 X103.148 Y94.225
M204 S500
M205 X5 Y5
G1 F1200 X103.21 Y94.373 E10.27648
G1 X103.21 Y120.627 E10.74317
G1 X103.148 Y120.775 E10.74602
G1 X103.025 Y120.898 E10.74911
G1 X102.877 Y120.96 E10.75196
G1 X94.123 Y120.96 E10.90758
G1 X93.975 Y120.898 E10.91043
G1 X93.852 Y120.775 E10.91352
G1 X93.79 Y120.627 E10.91637
G1 X93.79 Y94.373 E11.38306
G1 X93.852 Y94.225 E11.38592
G1 X93.975 Y94.102 E11.38901
G1 X94.123 Y94.04 E11.39186
G1 X102.877 Y94.04 E11.54747
G1 X103.025 Y94.102 E11.55032
G1 X103.148 Y94.225 E11.55342
M204 S625
M205 X6 Y6
G1 F1500 E7.05342
G0 F8571.4 X106.04 Y94.225
G0 X213 Y189
G1 F1200 E-0.44658
G92 E0
T0
G92 E0
M109 S210
M104 T1 S0
G1 F1500 E-6.5
G0 F4285.7 X213 Y207 Z0.27
G0 X124.036 Y93.115
G0 X122.135 Y91.214
G0 X9 Y6
G0 F15000 X9 Y6 Z2
G280
G0 F4285.7 X9 Y16 Z0.27
G0 X108.553 Y91.622
M204 S500
M205 X5 Y5
;TYPE:SKIRT
G1 F1500 E0
G1 F1200 X108.882 Y91.255 E0.00876
G1 X109.005 Y91.132 E0.01185
G1 X109.452 Y90.741 E0.02241
G1 X109.947 Y90.414 E0.03296
G1 X110.482 Y90.157 E0.04351
G1 X111.047 Y89.973 E0.05407
G1 X111.631 Y89.868 E0.06462
G1 X112.123 Y89.84 E0.07338
G1 X120.877 Y89.84 E0.22899
G1 X121.469 Y89.88 E0.23953
G1 X122.051 Y89.999 E0.25009
G1 X122.611 Y90.195 E0.26064
G1 X123.14 Y90.465 E0.2712
G1 X123.628 Y90.803 E0.28175
G1 X123.995 Y91.132 E0.29051
G1 X124.118 Y91.255 E0.2936
G1 X124.509 Y91.702 E0.30416
G1 X124.836 Y92.197 E0.31471
G1 X125.093 Y92.732 E0.32526
G1 X125.277 Y93.297 E0.33582
G1 X125.382 Y93.881 E0.34637
G1 X125.41 Y94.373 E0.35513
G1 X125.41 Y120.627 E0.82182
G1 X125.37 Y121.219 E0.83237
G1 X125.251 Y121.801 E0.84293
G1 X125.055 Y122.361 E0.85347
G1 X124.785 Y122.89 E0.86403
G1 X124.447 Y123.378 E0.87458
G1 X124.118 Y123.745 E0.88334
G1 X123.995 Y123.868 E0.88644
G1 X123.548 Y124.259 E0.89699
G1 X123.053 Y124.586 E0.90754
G1 X122.518 Y124.843 E0.91809
G1 X121.953 Y125.027 E0.92865
G1 X121.369 Y125.132 E0.9392
G1 X120.877 Y125.16 E0.94796
G1 X112.123 Y125.16 E1.10357
G1 X111.531 Y125.12 E1.11412
G1 X110.949 Y125.001 E1.12468
G1 X110.389 Y124.805 E1.13522
G1 X109.86 Y124.535 E1.14578
G1 X109.372 Y124.197 E1.15633
G1 X109.005 Y123.868 E1.16509
G1 X108.882 Y123.745 E1.16819
G1 X108.491 Y123.298 E1.17874
G1 X108.164 Y122.803 E1.18929
G1 X107.907 Y122.268 E1.19984
G1 X107.723 Y121.703 E1.2104
G1 X107.618 Y121.119 E1.22095
G1 X107.59 Y120.627 E1.22971
G1 X107.59 Y94.373 E1.6964
G1 X107.63 Y93.781 E1.70695
G1 X107.749 Y93.199 E1.71751
G1 X107.945 Y92.639 E1.72805
G1 X108.215 Y92.11 E1.73861
G1 X108.553 Y91.622 E1.74916
M204 S625
M205 X6 Y6
G0 F4285.7 X108.969 Y91.778
M204 S500
M205 X5 Y5
G1 F1200 X109.179 Y91.552 E1.75465
G1 X109.302 Y91.429 E1.75774
G1 X109.728 Y91.059 E1.76777
G1 X110.203 Y90.753 E1.77781
G1 X110.716 Y90.516 E1.78786
G1 X111.257 Y90.355 E1.79789
G1 X111.815 Y90.272 E1.80792
G1 X112.123 Y90.26 E1.8134
G1 X120.877 Y90.26 E1.96901
G1 X121.44 Y90.3 E1.97904
G1 X121.992 Y90.419 E1.98908
G1 X122.522 Y90.615 E1.99913
G1 X123.018 Y90.883 E2.00915
G1 X123.472 Y91.219 E2.01919
G1 X123.698 Y91.429 E2.02467
G1 X123.821 Y91.552 E2.02776
G1 X124.191 Y91.978 E2.03779
G1 X124.497 Y92.453 E2.04784
G1 X124.734 Y92.966 E2.05788
G1 X124.895 Y93.507 E2.06792
G1 X124.978 Y94.065 E2.07794
G1 X124.99 Y94.373 E2.08342
G1 X124.99 Y120.627 E2.55011
G1 X124.95 Y121.19 E2.56015
G1 X124.831 Y121.742 E2.57019
G1 X124.635 Y122.272 E2.58023
G1 X124.367 Y122.768 E2.59025
G1 X124.031 Y123.222 E2.60029
G1 X123.821 Y123.448 E2.60578
G1 X123.698 Y123.571 E2.60887
G1 X123.272 Y123.941 E2.6189
G1 X122.797 Y124.247 E2.62894
G1 X122.284 Y124.484 E2.63899
G1 X121.743 Y124.645 E2.64902
G1 X121.185 Y124.728 E2.65905
G1 X120.877 Y124.74 E2.66453
G1 X112.123 Y124.74 E2.82014
G1 X111.56 Y124.7 E2.83017
G1 X111.008 Y124.581 E2.84021
G1 X110.478 Y124.385 E2.85025
G1 X109.982 Y124.117 E2.86028
G1 X109.528 Y123.781 E2.87032
G1 X109.302 Y123.571 E2.8758
G1 X109.179 Y123.448 E2.87889
G1 X108.809 Y123.022 E2.88892
G1 X108.503 Y122.547 E2.89897
G1 X108.266 Y122.034 E2.90901
G1 X108.105 Y121.493 E2.91905
G1 X108.022 Y120.935 E2.92907
G1 X108.01 Y120.627 E2.93455
G1 X108.01 Y94.373 E3.40124
G1 X108.05 Y93.81 E3.41128
G1 X108.169 Y93.258 E3.42131
G1 X108.365 Y92.728 E3.43136
G1 X108.633 Y92.232 E3.44138
G1 X108.969 Y91.778 E3.45142
M204 S625
M205 X6 Y6
G0 F4285.7 X109.051 Y92.36
M204 S500
M205 X5 Y5
G1 F1200 X109.476 Y91.849 E3.46324
G1 X109.599 Y91.726 E3.46633
G1 X110.003 Y91.377 E3.47582
G1 X110.456 Y91.093 E3.48532
G1 X110.945 Y90.88 E3.4948
G1 X111.461 Y90.742 E3.5043
G1 X112.123 Y90.68 E3.51612
G1 X120.877 Y90.68 E3.67173
G1 X121.41 Y90.72 E3.68123
G1 X121.93 Y90.839 E3.69071
G1 X122.427 Y91.034 E3.7002
G1 X122.89 Y91.301 E3.7097
G1 X123.401 Y91.726 E3.72152
G1 X123.524 Y91.849 E3.72461
G1 X123.873 Y92.253 E3.7341
G1 X124.157 Y92.706 E3.7436
G1 X124.37 Y93.195 E3.75308
G1 X124.508 Y93.711 E3.76258
G1 X124.57 Y94.373 E3.7744
G1 X124.57 Y120.627 E4.24109
G1 X124.53 Y121.16 E4.25059
G1 X124.411 Y121.68 E4.26007
G1 X124.216 Y122.177 E4.26956
G1 X123.949 Y122.64 E4.27906
G1 X123.524 Y123.151 E4.29088
G1 X123.401 Y123.274 E4.29397
G1 X122.997 Y123.623 E4.30346
G1 X122.544 Y123.907 E4.31296
G1 X122.055 Y124.12 E4.32245
G1 X121.539 Y124.258 E4.33194
G1 X120.877 Y124.32 E4.34376
G1 X112.123 Y124.32 E4.49937
G1 X111.59 Y124.28 E4.50887
G1 X111.07 Y124.161 E4.51835
G1 X110.573 Y123.966 E4.52784
G1 X110.11 Y123.699 E4.53735
G1 X109.599 Y123.274 E4.54916
G1 X109.476 Y123.151 E4.55225
G1 X109.127 Y122.747 E4.56174
G1 X108.843 Y122.294 E4.57125
G1 X108.63 Y121.805 E4.58073
G1 X108.492 Y121.289 E4.59022
G1 X108.43 Y120.627 E4.60204
G1 X108.43 Y94.373 E5.06873
G1 X108.47 Y93.84 E5.07823
G1 X108.589 Y93.32 E5.08772
G1 X108.784 Y92.823 E5.09721
G1 X109.051 Y92.36 E5.10671
M204 S625
M205 X6 Y6
G1 F1500 E-1.39329
G0 F4285.7 X109.002 Y92.787
G0 X108.96 Y94.864
G0 X112.614 Y94.864
G0 X120.33 Y120.08
G0 X120.79 Y120.54
M204 S500
M205 X5 Y5
;TYPE:WALL-OUTER
G1 F1500 E5.10671
G1 F1200 X112.21 Y120.54 E5.25922
G1 X112.21 Y94.46 E5.72282
G1 X120.79 Y94.46 E5.87534
G1 X120.79 Y120.54 E6.33894
M204 S625
M205 X6 Y6
G0 F4285.7 X120.59 Y120.54
G0 X120.328 Y120.078
G0 X120.4 Y120.15
M204 S500
M205 X5 Y5
;TYPE:WALL-INNER
G1 F1200 X112.6 Y120.15 E6.45778
G1 X112.6 Y94.85 E6.84327
G1 X120.4 Y94.85 E6.96211
G1 X120.4 Y120.15 E7.3476
M204 S625
M205 X6 Y6
G0 F4285.7 X120.04 Y119.79
M204 S500
M205 X5 Y5
G1 F1200 X112.96 Y119.79 E7.45547
G1 X112.96 Y95.21 E7.82999
G1 X120.04 Y95.21 E7.93786
G1 X120.04 Y119.79 E8.31238
M204 S625
M205 X6 Y6
G0 F4285.7 X119.66 Y119.41
M204 S500
M205 X5 Y5
;TYPE:SKIN
G1 F1200 X113.34 Y119.41 E8.42472
G1 X113.34 Y95.59 E8.84814
G1 X119.66 Y95.59 E8.96049
G1 X119.66 Y119.41 E9.38391
M204 S625
M205 X6 Y6
G0 F4285.7 X113.917 Y119.263
M204 S500
M205 X5 Y5
G1 F1200 X113.485 Y118.831 E9.39477
M204 S625
M205 X6 Y6
G0 F4285.7 X113.485 Y118.237
M204 S500
M205 X5 Y5
G1 F1200 X114.511 Y119.263 E9.42056
M204 S625
M205 X6 Y6
G0 F4285.7 X115.105 Y119.263
M204 S500
